Flat Remix Light/panel/indicator-keyboard-Ro.svg

<svg xmlns="http://www.w3.org/2000/svg" width="22" height="22" version="1.1">
 <defs>
  <style id="current-color-scheme" type="text/css">
   .ColorScheme-Text { color:#31363b; } .ColorScheme-Highlight { color:#3daee9; }
  </style>
 </defs>
 <rect style="opacity:0" width="22" height="22" x="0" y="0"/>
 <path style="fill:none;stroke:currentColor;stroke-width:1.99999976;stroke-linecap:round" class="ColorScheme-Text" d="m 9.00315,14.999823 -2.0000011,-3 m -2.0000012,-1.000003 1.9999823,-3e-6 c 0.4238362,-1e-6 0.7290481,4.54e-4 1.00001,4.54e-4 0.999999,0 0.999999,0 0.999999,-1 0,-0.2567202 1.5e-5,-0.5997724 1.1e-5,-1.0004476 l -1.1e-5,-0.9995519 c 0,-1 0,-1 -0.999999,-1 -0.2245039,0 -0.5441121,0.00944 -0.8745184,0.00719 -1.1254903,-0.00765 -2.1254739,-0.00756 -2.1254739,-0.00756 M 5.003246,15 l 0,-8.0000002"/>
 <path style="fill:none;stroke:currentColor;stroke-width:1.99999976;stroke-linecap:round;stroke-linejoin:bevel" class="ColorScheme-Text" d="m 15.002904,6.9994202 c 2.399679,0 2.000001,2.000001 2.000001,3.9999988 0,2.000001 0.355578,4.061102 -2.000001,4.000003 -2.348587,0 -1.999997,-2.000002 -1.999997,-4.000003 0,-1.9999978 -0.435451,-3.9999988 1.999997,-3.9999988"/>
</svg>

<svg xmlns="http://www.w3.org/2000/svg" width="12pt" height="12pt" version="1.1" viewBox="0 0 12 12">
 <g>
  <path style="fill:none;stroke-width:2;stroke-linecap:round;stroke:rgb(19.215686%,21.176471%,23.137255%)" d="M 9 15 L 7 12 M 5 11 L 7 11 C 7.429688 11 7.734375 11 8 11 C 9 11 9 11 9 10 C 9 9.742188 9 9.398438 9 9 L 9 8 C 9 7 9 7 8 7 C 7.78125 7 7.460938 7.007812 7.125 7.007812 C 6 7 5 7 5 7 M 5 15 L 5 7" transform="matrix(0.5,0,0,0.5,0.5,0.5)"/>
  <path style="fill:none;stroke-width:2;stroke-linecap:round;stroke-linejoin:bevel;stroke:rgb(19.215686%,21.176471%,23.137255%)" d="M 15 7 C 17.40625 7 17 9 17 11 C 17 13 17.359375 15.0625 15 15 C 12.65625 15 13 13 13 11 C 13 9 12.570312 7 15 7" transform="matrix(0.5,0,0,0.5,0.5,0.5)"/>
 </g>
</svg>
